X:196
T:Flaxley Green Dance
S:William Robinson (c. 1790-c. 1860), AbbottÌs Bromley, Staffordshire
R:jig
M:6/8
L:1/8
K:A Minor
ABc d2c | BAG A2G | FGA GAB | A3 A2A |
Bcd e2d | cBA B2c | dfe dcB |1 A3 A3 :|2 A3 A2B |:
cea g2f | edc d2c | Bdg f2e | dcB c2B |
Acf Bdg | cea dfb | efe dcB |1 A3 A2B :|2 A3 A3 |]
